X:1
T:[ID 4-24v]
T:[ID 4-24v]
T:Bezeichnung standardisiert: Menuett Menuet
T:Urheber unbekannt Datum in der hier transkribierten schriftlichen Quelle: 1767
C:Urheber unbekannt
C:Datum in der hier transkribierten schriftlichen Quelle: 1767
L:1/8
M:3/4
K:D
V:1 treble 
V:1
 D2 F2 A2 | dAfdaf | d'2 a2 b2 | Tg4 f2 | gAcAge | c'ae'gfe | gAcAge | c'ae'gfe | ga A2 Tc2 | d6 :: %10
 d2 f2 a2 | ceaefc | dB^GBEd | c2 Bc A2 | ceac'ae | fdbf^ge | a3 BAG | FAdfa=c | BDGBdg | %19
 ^GBe^gbd | cEAcea | dfac'e'g | fAdfad' | ef A2 Tc2 | !fermata!d6 :| %25

